public/assets/logos/planet-nacho-white.svg

<svg fill="none" height="25" viewBox="0 0 26 25" width="26" xmlns="http://www.w3.org/2000/svg"><g fill="#fff"><path d="m18.2328 17.4804c-2.2643 2.2194-4.7623 4.2035-7.4531 5.92 1.8676.4 3.8093.338 5.6456-.1803s3.508-1.4762 4.8605-2.7851c1.3526-1.309 2.3424-2.9267 2.878-4.7038.5356-1.777.5997-3.6561.1863-5.4634-1.7735 2.6041-3.8238 5.0215-6.1173 7.2126z"/><path d="m4.03227 18.5956c.04818.0793.10325.1552.15488.2346-.00177.0079-.00177.0162 0 .0241l.15489.2242.04819.069.15145.207.15833.2035.03442.0414.19619.238.15489.1794.07572.0828c.05851.069.12047.1345.18587.2035l.20995.2139.21341.2104.1893.1794.0895.0759.92933-.345c2.40937-.8658 5.57941-3.1356 8.50851-6.0747 2.9291-2.939 5.2628-6.07123 6.1095-8.47214l.3442-.93138-.0551-.06209-.1514-.16558-.296-.30012-.1962-.19317-.1962-.18283c-.0861-.07589-.1756-.15523-.265-.22767-.0895-.07245-.1446-.12419-.2203-.18628-.0129-.00724-.0246-.01656-.0344-.0276l-.1859-.14488-.0689-.05174-.2271-.16903-.1928-.13454h-.0172l-.117-.08624v-.0138c-.062-.04484-.1274-.08623-.1928-.12763-2.0174-1.28117-4.3901-1.88377-6.7729-1.72011-2.3828.16365-4.6513 1.08501-6.4755 2.63003-1.82421 1.54502-3.10893 3.63309-3.66725 5.96042-.55832 2.32728-.36112 4.77248.56292 6.97968.23983.5764.52768 1.1314.8605 1.6593z"/><path d="m23.8899 8.14247c.118-.20135.2291-.39922.3471-.59362.192-.34714.3691-.68734.531-1.0206 1.3051-2.70076 1.6001-4.85999.5693-5.901419-1.0309-1.041427-3.1829-.735942-5.8589.551959.2776.14927.5518.30895.8191.47558.4174.26363.8184.55229 1.2009.86439.429-.02126.8545.08634 1.2218.30896.0678.04822.1327.10038.1944.15621l.0312.02777c.2344.24598.3892.55688.4443.89216.0363.18282.0526.36907.0486.55543-.0255.68856-.1663 1.36797-.4165 2.00995-.8921 2.5272-3.2349 5.91186-6.4455 9.16106-3.2106 3.2493-6.63637 5.5543-9.15972 6.4465-.64104.2495-1.31889.3914-2.00618.42-.1885.0006-.37667-.0157-.56229-.0486-.33406-.0577-.64337-.2136-.88855-.4478l-.02776-.0312c-.0557-.0597-.10676-.1235-.15272-.191-.22528-.3676-.33416-.7948-.31239-1.2254-.31124-.3823-.59871-.7835-.86078-1.2011-.17354-.2661-.33321-.5404-.47898-.8227-1.287709 2.6799-1.572323 4.8287-.54841 5.8528 1.02392 1.0241 3.19671.7359 5.90054-.5693.34709-.1597.66988-.3472 1.01697-.5277.19437-.1076.39569-.2187.597-.3471 3.00807-1.8328 5.77707-4.032 8.24337-6.5471 2.5188-2.4662 4.7202-5.2369 6.5531-8.24813z"/></g></svg>

<svg width="26" height="25" viewBox="0 0 26 25" fill="none" xmlns="http://www.w3.org/2000/svg">
<path d="M18.2328 17.4804C15.9685 19.6998 13.4705 21.6839 10.7797 23.4004C12.6473 23.8004 14.589 23.7384 16.4253 23.2201C18.2616 22.7018 19.9333 21.7439 21.2858 20.435C22.6384 19.126 23.6282 17.5083 24.1638 15.7312C24.6994 13.9542 24.7635 12.0751 24.3501 10.2678C22.5766 12.8719 20.5263 15.2893 18.2328 17.4804Z" fill="white"/>
<path d="M4.03227 18.5956C4.08045 18.6749 4.13552 18.7508 4.18715 18.8302C4.18538 18.8381 4.18538 18.8464 4.18715 18.8543L4.34204 19.0785L4.39023 19.1475L4.54168 19.3545L4.70001 19.558L4.73443 19.5994L4.93062 19.8374L5.08551 20.0168L5.16123 20.0996C5.21974 20.1686 5.2817 20.2341 5.3471 20.3031L5.55705 20.517L5.77046 20.7274L5.95976 20.9068L6.04926 20.9827L6.97859 20.6377C9.38796 19.7719 12.558 17.5021 15.4871 14.563C18.4162 11.624 20.7499 8.49177 21.5966 6.09086L21.9408 5.15948L21.8857 5.09739L21.7343 4.93181L21.4383 4.63169L21.2421 4.43852L21.0459 4.25569C20.9598 4.1798 20.8703 4.10046 20.7809 4.02802C20.6914 3.95557 20.6363 3.90383 20.5606 3.84174C20.5477 3.8345 20.536 3.82518 20.5262 3.81414L20.3403 3.66926L20.2714 3.61752L20.0443 3.44849L19.8515 3.31395H19.8343L19.7173 3.22771V3.21391C19.6553 3.16907 19.5899 3.12768 19.5245 3.08628C17.5071 1.80511 15.1344 1.20251 12.7516 1.36617C10.3688 1.52982 8.1003 2.45118 6.2761 3.9962C4.45189 5.54122 3.16717 7.62929 2.60885 9.95662C2.05053 12.2839 2.24773 14.7291 3.17177 16.9363C3.4116 17.5127 3.69945 18.0677 4.03227 18.5956Z" fill="white"/>
<path d="M23.8899 8.14247C24.0079 7.94112 24.119 7.74325 24.237 7.54885C24.429 7.20171 24.6061 6.86151 24.768 6.52825C26.0731 3.82749 26.3681 1.66826 25.3373 0.626831C24.3064 -0.414596 22.1544 -0.109111 19.4784 1.17879C19.756 1.32806 20.0302 1.48774 20.2975 1.65437C20.7149 1.918 21.1159 2.20666 21.4984 2.51876C21.9274 2.4975 22.3529 2.6051 22.7202 2.82772C22.788 2.87594 22.8529 2.9281 22.9146 2.98393L22.9458 3.0117C23.1802 3.25768 23.335 3.56858 23.3901 3.90386C23.4264 4.08668 23.4427 4.27293 23.4387 4.45929C23.4132 5.14785 23.2724 5.82726 23.0222 6.46924C22.1301 8.99644 19.7873 12.3811 16.5767 15.6303C13.3661 18.8796 9.94033 21.1846 7.41698 22.0768C6.77594 22.3263 6.09809 22.4682 5.4108 22.4968C5.2223 22.4974 5.03413 22.4811 4.84851 22.4482C4.51445 22.3905 4.20514 22.2346 3.95996 22.0004L3.9322 21.9692C3.8765 21.9095 3.82544 21.8457 3.77948 21.7782C3.5542 21.4106 3.44532 20.9834 3.46709 20.5528C3.15585 20.1705 2.86838 19.7693 2.60631 19.3517C2.43277 19.0856 2.2731 18.8113 2.12733 18.529C0.839621 21.2089 0.555007 23.3577 1.57892 24.3818C2.60284 25.4059 4.77563 25.1177 7.47946 23.8125C7.82655 23.6528 8.14934 23.4653 8.49643 23.2848C8.6908 23.1772 8.89212 23.0661 9.09343 22.9377C12.1015 21.1049 14.8705 18.9057 17.3368 16.3906C19.8556 13.9244 22.057 11.1537 23.8899 8.14247Z" fill="white"/>
</svg>
